Numix/24/status/pamac-tray-no-update.svg

<?xml version="1.0" encoding="UTF-8" standalone="no"?>
<!-- Created with Inkscape (http://www.inkscape.org/) -->

<svg
   xmlns:dc="http://purl.org/dc/elements/1.1/"
   xmlns:cc="http://creativecommons.org/ns#"
   xmlns:rdf="http://www.w3.org/1999/02/22-rdf-syntax-ns#"
   xmlns:svg="http://www.w3.org/2000/svg"
   xmlns="http://www.w3.org/2000/svg"
   xmlns:sodipodi="http://sodipodi.sourceforge.net/DTD/sodipodi-0.dtd"
   xmlns:inkscape="http://www.inkscape.org/namespaces/inkscape"
   sodipodi:docname="pamac-tray-no-update.svg"
   height="24"
   id="svg7384"
   inkscape:version="0.91 r13725"
   version="1.1"
   width="24">
  <metadata
     id="metadata90">
    <rdf:RDF>
      <cc:Work
         rdf:about="">
        <dc:format>image/svg+xml</dc:format>
        <dc:type
           rdf:resource="http://purl.org/dc/dcmitype/StillImage" />
        <dc:title>Gnome Symbolic Icon Theme</dc:title>
      </cc:Work>
    </rdf:RDF>
  </metadata>
  <sodipodi:namedview
     inkscape:bbox-nodes="false"
     inkscape:bbox-paths="true"
     bordercolor="#666666"
     borderopacity="1"
     inkscape:current-layer="layer9"
     inkscape:cx="11.564448"
     inkscape:cy="11.315718"
     gridtolerance="10"
     inkscape:guide-bbox="true"
     guidetolerance="10"
     id="namedview88"
     inkscape:object-nodes="true"
     inkscape:object-paths="false"
     objecttolerance="10"
     pagecolor="#f9f9f9"
     inkscape:pageopacity="1"
     inkscape:pageshadow="2"
     showborder="false"
     showgrid="false"
     showguides="true"
     inkscape:snap-bbox="true"
     inkscape:snap-bbox-midpoints="false"
     inkscape:snap-global="true"
     inkscape:snap-grids="true"
     inkscape:snap-nodes="true"
     inkscape:snap-others="false"
     inkscape:snap-to-guides="true"
     inkscape:window-height="704"
     inkscape:window-maximized="1"
     inkscape:window-width="1366"
     inkscape:window-x="0"
     inkscape:window-y="27"
     inkscape:zoom="16">
    <inkscape:grid
       empspacing="2"
       enabled="true"
       id="grid4866"
       originx="60px"
       originy="40.000001px"
       snapvisiblegridlinesonly="true"
       spacingx="1px"
       spacingy="1px"
       type="xygrid"
       visible="true" />
    <inkscape:grid
       color="#000000"
       empcolor="#000000"
       empopacity="0"
       empspacing="4"
       enabled="true"
       id="grid5968"
       opacity="0.1254902"
       originx="60px"
       originy="40.000001px"
       snapvisiblegridlinesonly="true"
       spacingx="0.5px"
       spacingy="0.5px"
       type="xygrid"
       visible="true" />
  </sodipodi:namedview>
  <title
     id="title9167">Gnome Symbolic Icon Theme</title>
  <defs
     id="defs7386" />
  <g
     inkscape:groupmode="layer"
     id="layer9"
     inkscape:label="status"
     style="display:inline"
     transform="translate(-181.0002,-249)">
    <path
       style="display:inline;fill:#ececec;fill-opacity:1;fill-rule:evenodd;stroke:none;enable-background:new"
       d="M 12 1 L 8.8828125 5.7207031 L 4.1171875 4.1171875 L 5.7207031 8.8828125 L 1 12 L 5.7207031 15.117188 L 4.1171875 19.882812 L 8.8828125 18.279297 L 12 23 L 15.117188 18.279297 L 19.882812 19.882812 L 18.279297 15.117188 L 23 12 L 18.279297 8.8828125 L 19.882812 4.1171875 L 15.117188 5.7207031 L 12 1 z M 12 7.5 L 16 11.5 L 16 13 L 14.5 13 L 13 11.5 L 13 16 L 11 16 L 11 11.328125 L 9.5 13 L 8 13 L 8 11.5 L 12 7.5 z "
       transform="translate(181.0002,249)"
       id="rect7040" />
  </g>
  <g
     inkscape:groupmode="layer"
     id="layer10"
     inkscape:label="devices"
     style="display:inline"
     transform="translate(-181.0002,-249)" />
  <g
     inkscape:groupmode="layer"
     id="layer11"
     inkscape:label="apps"
     transform="translate(-181.0002,-249)" />
  <g
     inkscape:groupmode="layer"
     id="layer13"
     inkscape:label="places"
     style="display:inline"
     transform="translate(-181.0002,-249)" />
  <g
     inkscape:groupmode="layer"
     id="layer14"
     inkscape:label="mimetypes"
     transform="translate(-181.0002,-249)" />
  <g
     inkscape:groupmode="layer"
     id="layer15"
     inkscape:label="emblems"
     style="display:inline"
     transform="translate(-181.0002,-249)" />
  <g
     inkscape:groupmode="layer"
     id="g71291"
     inkscape:label="emotes"
     style="display:inline"
     transform="translate(-181.0002,-249)" />
  <g
     inkscape:groupmode="layer"
     id="g4953"
     inkscape:label="categories"
     style="display:inline"
     transform="translate(-181.0002,-249)" />
  <g
     inkscape:groupmode="layer"
     id="layer12"
     inkscape:label="actions"
     style="display:inline"
     transform="translate(-181.0002,-249)" />
</svg>

<!-- Created with Inkscape (http://www.inkscape.org/) -->
<svg xmlns="http://www.w3.org/2000/svg" viewBox="0 0 24 24">
 <g transform="translate(-181.0002,-249)" style="display:inline">
  <path d="m 12 1 l -3.117 4.721 l -4.766 -1.604 l 1.604 4.766 l -4.721 3.117 l 4.721 3.117 l -1.604 4.766 l 4.766 -1.604 l 3.117 4.721 l 3.117 -4.721 l 4.766 1.604 l -1.604 -4.766 l 4.721 -3.117 l -4.721 -3.117 l 1.604 -4.766 l -4.766 1.604 l -3.117 -4.721 z m 0 6.5 l 4 4 l 0 1.5 l -1.5 0 l -1.5 -1.5 l 0 4.5 l -2 0 l 0 -4.672 l -1.5 1.672 l -1.5 0 l 0 -1.5 l 4 -4 z" transform="translate(181.0002,249)" style="fill:#ececec;fill-opacity:1;stroke:none;fill-rule:evenodd"/>
 </g>
</svg>
